X: 152
M: C|
L: 1/8
K: D
|:\
[fAD]gaf gfed | efge dcBA |\
|:\
efef efge | fgfg fgaf |
efef efge | fgaf {f}e4 |\
[fAD]gaf gfed | efge dcBA |\

